X: 1
T:Walk the Line Bass
M:4/4
L:1/8
Q:1/4=48
K:G
V:2 
%Bass
z6 z=F/2z/2|C/2z/2=F/2C/2 z/2^A,/2z/2=F/2 z/2^A,/2>=F/2^D/2 =F/2z/2C/2z/2|=F/2C/2z/2C/2 z/2G/2z/2C/2 [=F/2C/2]C/2G/2z/2 =D/2z/2G/2D/2|z/2C/2z/2G/2 z/2C/2>G/2B,/2 C/2z/2G/2z/2 C/2G/2z/2C/2|
z/2G/2z/2C/2 [E/2C/2]=F/2G/2z/2 D/2z/2G/2D/2 z/2C/2z/2G/2|z/2C/2>G/2A/2 G/2z/2D/2z/2 G/2D/2z/2C/2 z/2G/2z/2C/2|C/2z/2=F/2z/2 C/2z/2=F/2C/2 z/2C/2z/2G/2 z/2C/2>G/2=F/2|G/2z/2D/2z/2 G/2D/2z/2C/2 z/2G/2z/2C/2 [C/2C/2]G,/2C/2z/2|
G/2z/2C/2G/2 z/2C/2z/2G/2 z/2C/2>G/2G/2 C/2z/2G/2z/2|C/2C/2[=F/2C/2]G/2 z/2D/2z/2G/2 z/2D/2C/2z/2 G/2z/2C/2z/2|[G/2=F/2]G/2z/2D/2 z/2G/2z/2D/2 C/2z/2G/2z/2 C/2z/2C/2=F/2|z/2C/2z/2=F/2 z/2C/2C/2z/2 G/2z/2C/2z/2 G/2[G/2=F/2]z/2D/2|
z/2G/2z/2D/2 C/2z/2G/2z/2 C/2C/2B,/2[C/2C/2] z/2G/2z/2C/2|z/2G/2D/2z/2 A/2z/2D/2z/2 A/2D/2z/2=A,/2 z/2D/2D/2D/2|A,/2<A,/2E/2z/2 A,/2z/2E/2z/2 D/2A,/2z/2D/2 z/2A,/2D,/2<A,/2|E/2z/2A,/2z/2 E/2z/2D/2A/2 z/2D/2z/2A/2 D/2<G/2D/2z/2|
G/2z/2D/2z/2 D/2A,/2z/2D/2 z/2A,/2B,/2<A,/2 E/2z/2A,/2z/2|E/2z/2D/2A/2 z/2D/2D/2E/2 D/2<D/2A/2z/2 D/2z/2A/2z/2|D/2A/2z/2D/2 z/2A/2A/2D/2 z/2A,/2>D/2D/2 D,/2D/2A,/2z/2|E/2A,/2z/2E/2 z/2D/2z/2A,/2 D/2z/2A,/2B,/2 A,/2z/2E/2A,/2|
z/2E/2z/2D/2 z/2A/2D/2z/2 A/2D/2G/2z/2 D/2G/2z/2D/2|z/2D/2z/2A,/2 D/2z/2A,/2F,/2 A,/2z/2E/2A,/2 z/2E/2z/2D/2|z/2A/2D/2z/2 A/2z/2D/2z/2 A/2>D/2D/2D/2 D/2D/2z/2A,/2|D/2z/2A,/2z/2 D/2z/2A,/2>D/2 A,/2D/2
